icons/snyk.svg

<?xml version="1.0" encoding="UTF-8" standalone="no"?>
<svg width="256px" height="419px" viewBox="0 0 256 419" version="1.1" xmlns="http://www.w3.org/2000/svg" xmlns:xlink="http://www.w3.org/1999/xlink" preserveAspectRatio="xMidYMid">
	<g>
		<path d="M217.618939,99.4087738 C209.090287,72.9534943 189.697565,35.7767941 186.9346,30.5444 L184.5286,25.9704 C182.1586,21.2504 180.3896,17.8694 179.7226,16.6074 L170.9846,0.0004 L158.4676,88.9484 L158.031684,92.1834868 C148.673489,91.6503965 138.710907,91.3439 128.173,91.3439 C117.57531,91.3439 107.553545,91.653884 98.1388235,92.1925816 L97.7526,88.9464 L93.3596,57.7674 C93.3656,57.7154 85.2166,0.0004 85.2166,0.0004 L76.2946,16.6074 C75.4866,18.1344 73.0516,22.7614 69.8826,29.1124 L69.1126,30.5444 C66.3439113,35.7817454 46.7659562,73.023881 38.1826747,99.4838462 C13.4230361,104.266837 0,109.3829 0,109.3829 L0,325.5989 L127.999,418.3199 L256,325.5989 L256,109.3829 C256,109.3829 242.535247,104.213143 217.618939,99.4087738 Z" fill="#FFFFFF"></path>
		<polygon fill="#3B3B63" points="183.0735 267.2773 127.9005 267.2773 127.9005 172.8073 71.9175 264.5153 63.2135 358.6873 127.0385 405.3053 127.9005 405.9363 193.1725 358.3513"></polygon>
		<path d="M126.9544,404.9673 L8.1794,318.8583 L8.1794,118.0613 C8.1794,118.0613 52.0974,101.3083 127.1154,101.3083 C202.1344,101.3083 245.7314,118.0613 245.7314,118.0613 L245.7314,318.8583 L126.9544,404.9673 Z" fill="#DBDBDB"></path>
		<path d="M128.675,101.3083 C128.62,101.3083 128.567,101.3103 128.512,101.3103 L128.512,404.9623 L128.514,404.9623 L247.291,318.8533 L247.291,118.0613 C247.291,118.0613 203.693,101.3083 128.675,101.3083" fill="#C6C6C6"></path>
		<polygon fill="#3B3B63" points="192.8474 358.1572 182.7674 267.2772 127.5914 267.2772 127.5914 405.7252"></polygon>
		<polygon fill="#53537A" points="63.2132 358.687 127.9002 405.936 127.9002 172.807 71.9172 264.515"></polygon>
		<path d="M155.7396,331.842 C155.7396,347.424 141.4246,355.148 128.2926,355.148 C115.1606,355.148 100.5566,347.424 100.5566,331.842" fill="#BC9375"></path>
		<path d="M147.6916,323.0116 C147.6916,341.2856 138.0146,346.1846 128.1476,346.1846 C118.2816,346.1846 108.6016,341.2856 108.6016,323.0116" fill="#073251"></path>
		<path d="M128.1472,339.9002 C117.6042,339.9002 112.4782,332.0362 112.4782,315.8702 L117.5052,315.8702 C117.5052,334.7962 124.6912,334.7962 128.1472,334.7962 C131.6022,334.7962 138.7892,334.7962 138.7892,315.8702 L143.8152,315.8702 C143.8152,332.0362 138.6882,339.9002 128.1472,339.9002" fill="#FFFFFF"></path>
		<path d="M211.8322,129.6231 C211.8322,109.9091 179.0622,47.8821 179.0622,47.8821 L167.9772,126.5461 L158.0282,143.1531 L128.2092,144.3861 L128.0912,144.6301 L128.0912,144.3861 L98.2682,143.1531 L88.3222,126.5461 L77.2372,47.8821 C77.2372,47.8821 44.4642,109.9091 44.4642,129.6231 L58.3092,167.5021 C58.3092,167.5021 51.3222,231.1291 54.5122,239.4591 C57.6922,247.7911 79.7822,275.6541 79.7822,275.6541 C79.7822,275.6541 79.7162,299.0781 85.7642,315.9181 C90.0792,327.9441 99.5862,332.8221 108.6892,332.8221 C122.6332,332.8221 128.0882,319.8161 128.0882,319.8161 C128.0882,319.8161 133.6742,332.8221 147.6182,332.8221 C156.7192,332.8221 166.2172,327.9521 170.5422,315.9181 C176.5832,299.0851 176.5222,275.6541 176.5222,275.6541 C176.5222,275.6541 198.6072,247.7911 201.7932,239.4591 C204.9812,231.1271 197.9932,167.5021 197.9932,167.5021 L211.8322,129.6231 Z" fill="#C49A7E"></path>
		<path d="M128.1472,144.512 L128.0902,144.63 L128.0902,144.387 L98.2662,143.155 L88.3212,126.547 L77.2322,47.884 C77.2322,47.884 44.4622,109.911 44.4622,129.625 L58.3042,167.504 C58.3042,167.504 51.3192,231.13 54.5042,239.461 C57.6912,247.793 79.7722,275.656 79.7722,275.656 C79.7722,275.656 79.7152,299.08 85.7562,315.92 C90.0772,327.946 99.5852,332.824 108.6802,332.824 C122.6312,332.824 128.0862,319.818 128.0862,319.818 C128.0862,319.818 128.1112,319.864 128.1492,319.949 L128.1492,144.512 L128.1472,144.512 Z" fill="#D8B7A0"></path>
		<path d="M198.2912,171.2307 C195.7512,165.8267 199.3622,153.0397 199.3622,153.0397 C178.6682,131.4747 173.4932,86.5057 173.4932,86.5057 C169.6292,100.6757 161.2312,142.4547 161.2312,142.4547 C161.2312,142.4547 145.7862,136.6067 128.2162,136.5787 L128.1542,136.5787 L128.0852,136.5787 C127.1202,136.5837 126.1692,136.6087 125.2192,136.6397 L125.2192,312.9307 L126.5312,314.8837 L126.5312,313.9187 L127.3422,313.9187 L127.3422,314.8837 L127.3502,313.9187 L128.9522,313.9187 L128.9522,314.8837 L128.9522,313.9187 L129.7712,313.9187 L129.7712,314.8837 L144.0762,293.6477 L147.1862,234.0147 L164.9962,254.6687 L187.9402,261.4827 C187.9402,261.4827 196.5242,255.2617 196.5242,255.2847 C200.1692,250.0967 201.3782,245.6767 202.2592,243.3837 C205.4462,235.0397 198.2912,171.2307 198.2912,171.2307" fill="#3B3B63"></path>
		<path d="M128.3075,136.5768 C128.2845,136.5768 128.2665,136.5748 128.2465,136.5748 L128.2465,136.5768 C110.6705,136.6068 95.2235,142.4508 95.2235,142.4508 C95.2235,142.4508 86.8225,100.6738 82.9615,86.5028 C82.9615,86.5028 77.7895,131.4718 57.0925,153.0368 C57.0925,153.0368 60.7035,165.8248 58.1635,171.2278 C58.1635,171.2278 51.0085,235.0398 54.1955,243.3708 C55.0755,245.6658 56.2935,250.0828 59.9335,255.2718 C59.9335,255.2478 68.5225,261.4708 68.5225,261.4708 L91.4615,254.6558 L109.2685,234.0048 L112.3865,293.6378 L126.6835,314.8738 L126.6835,313.9088 L127.5025,313.9088 L127.5025,314.8738 L127.5025,313.9088 L128.3055,313.9088 L128.3055,136.5768 L128.3075,136.5768 Z" fill="#53537A"></path>
		<path d="M169.7795,211.1444 L169.7795,211.1444 L149.6755,211.1444 L142.9755,211.1444 L142.9755,211.4314 C142.9755,220.9384 151.0695,228.6394 160.5635,228.6394 C170.0605,228.6394 178.1545,220.9364 178.1545,211.4314 L178.1545,211.1444 L169.7795,211.1444 Z" fill="#333152"></path>
		<path d="M149.6758,211.1444 L149.6758,211.4314 C149.6758,217.0864 154.1578,221.6684 159.7298,221.6684 C165.3008,221.6684 169.7808,217.0864 169.7808,211.4314 L169.7808,211.1444 L149.6758,211.1444 Z" fill="#FFFFFF"></path>
		<path d="M162.8307,211.1444 L158.1197,211.1444 C158.0737,211.1444 158.0347,211.1674 157.9937,211.1764 C158.5777,211.3004 158.9017,212.6454 158.7757,213.5414 C158.5877,214.9094 157.4387,215.8594 156.1237,215.8824 C156.5067,217.6714 157.9427,219.1094 159.8507,219.3824 C162.2877,219.7324 164.5397,218.0354 164.8857,215.5624 C165.1337,213.7414 164.2717,211.1444 162.8307,211.1444" fill="#333152"></path>
		<path d="M105.0761,211.1444 L105.0761,211.1444 L84.9761,211.1444 L78.2741,211.1444 L78.2741,211.4314 C78.2741,220.9384 86.3691,228.6394 95.8621,228.6394 C105.3591,228.6394 113.4541,220.9364 113.4541,211.4314 L113.4541,211.1444 L105.0761,211.1444 Z" fill="#333152"></path>
		<path d="M84.9756,211.1444 L84.9756,211.4314 C84.9756,217.0864 89.4606,221.6684 95.0246,221.6684 C100.5976,221.6684 105.0776,217.0864 105.0776,211.4314 L105.0776,211.1444 L84.9756,211.1444 Z" fill="#FFFFFF"></path>
		<path d="M98.1306,211.1444 L93.4146,211.1444 C93.3736,211.1444 93.3296,211.1674 93.2916,211.1764 C93.8746,211.3004 94.1966,212.6454 94.0736,213.5414 C93.8846,214.9094 92.7426,215.8594 91.4186,215.8824 C91.8066,217.6714 93.2426,219.1094 95.1466,219.3824 C97.5826,219.7324 99.8396,218.0354 100.1806,215.5624 C100.4326,213.7414 99.5716,211.1444 98.1306,211.1444" fill="#333152"></path>
		<path d="M167.7577,203.0298 C168.8827,201.7778 178.4377,190.7698 165.6587,190.7698 C154.1117,190.7698 145.8037,200.2298 143.6017,203.0298 L167.7577,203.0298 Z" fill="#C49A7E"></path>
		<path d="M112.6384,203.0298 C110.4384,200.2298 102.1304,190.7698 90.5794,190.7698 C77.8074,190.7698 87.3624,201.7778 88.4814,203.0298 L112.6384,203.0298 Z" fill="#D8B7A0"></path>
		<polygon fill="#53537A" points="72.109 211.043 120.991 211.043 120.991 206.376 72.109 206.376"></polygon>
		<path d="M199.1762,144.8641 C184.9632,124.5761 180.5042,91.5941 180.1172,88.5801 L182.7102,70.1951 C193.2642,92.0011 204.3372,117.8801 205.0962,128.6801 L199.1762,144.8641 Z M195.5462,237.1571 C193.6052,242.2211 180.2012,260.3141 171.2972,271.5471 L169.8122,273.4301 L169.8192,275.8341 C169.8192,276.0511 169.8122,298.2281 164.2422,313.7481 C160.2152,324.9651 151.2702,326.1771 147.6162,326.1771 C138.3642,326.1771 134.3712,317.5661 134.2312,317.2551 L133.7022,309.1891 L122.4552,309.1891 L121.9472,317.2091 C121.7872,317.5741 117.8922,326.1551 108.6862,326.1551 C105.0242,326.1551 96.0822,324.9561 92.0522,313.7391 C86.5002,298.2741 86.4742,276.0511 86.4742,275.8251 L86.4822,273.4221 L84.9972,271.5471 C76.0982,260.3221 62.6932,242.2291 60.8002,237.2881 C59.2872,231.9441 61.7852,197.3831 64.9652,168.4221 L65.1402,166.8151 L62.6312,159.9571 C71.2512,150.7811 77.3002,138.1531 81.4732,126.1321 L81.8792,129.0581 L95.5702,151.9011 L100.9192,149.5691 C101.0542,149.5111 114.7712,143.5851 128.0912,143.5851 C141.3272,143.5851 155.2702,149.5161 155.4012,149.5741 L160.7422,151.8861 L174.4172,129.0531 L174.9532,125.2401 C179.0822,137.3791 185.1252,150.2331 193.7862,159.6131 L191.1592,166.8101 L191.3342,168.4161 C194.5122,197.3831 197.0102,231.9441 195.5462,237.1571 L195.5462,237.1571 Z M119.8062,337.4021 C121.5962,336.5931 123.2122,335.6301 124.6372,334.5711 C125.9392,334.9591 127.1882,334.9591 128.1472,334.9591 C129.1012,334.9591 130.3372,334.9681 131.6302,334.5791 C133.0582,335.6301 134.6772,336.5931 136.4672,337.4021 C134.2222,339.1061 131.4582,340.0641 128.1542,340.0641 C124.8312,340.0641 122.0542,339.1131 119.8062,337.4021 L119.8062,337.4021 Z M128.2932,351.9111 C120.9372,351.9111 110.4772,348.5811 107.8752,339.7541 C108.1412,339.7621 108.4032,339.7851 108.6752,339.7851 C110.0962,339.7851 111.4292,339.6531 112.7172,339.4671 C116.4482,344.7411 122.2602,346.3591 128.1492,346.3591 C134.0472,346.3591 139.8712,344.7561 143.6082,339.4731 C144.8882,339.6511 146.2062,339.7851 147.6162,339.7851 C147.8932,339.7851 148.1592,339.7621 148.4362,339.7541 C145.8592,348.5811 135.5392,351.9111 128.2932,351.9111 L128.2932,351.9111 Z M51.2062,128.6781 C51.9652,117.8781 63.0312,92.0011 73.5872,70.1931 L76.4012,90.1331 C75.3282,97.5881 70.4242,126.8261 57.2692,145.2561 L51.2062,128.6781 Z M218.3642,129.7861 C218.3642,108.9641 188.3142,51.3351 184.8812,44.8321 L175.2742,26.5731 L161.5122,124.3671 L155.1602,134.9891 C149.0282,132.8981 138.5922,129.9801 128.0832,129.9801 C117.5862,129.9801 107.2202,132.8881 101.1142,134.9821 L94.7592,124.3651 L89.9292,90.0851 C89.9352,90.0281 89.9432,89.9521 89.9432,89.9171 L89.9062,89.9121 L80.9762,26.5731 L71.1662,44.8321 C67.7282,51.3351 37.4382,108.9641 37.4382,129.7861 L37.4382,131.0081 L51.3082,168.5191 C49.0902,188.9711 44.8562,233.3971 48.1822,242.0801 C50.2542,247.5091 58.2302,258.7191 64.9762,267.7041 L55.8902,353.6911 L68.4002,362.6531 L75.0122,300.1031 C75.9622,306.1861 77.3642,312.6101 79.4452,318.4131 C82.3142,326.4101 87.3852,332.4631 93.8762,336.0551 C94.2622,355.1991 111.7842,365.5231 128.2932,365.5231 C144.6652,365.5231 162.0422,355.1911 162.4222,336.0401 C168.8992,332.4551 173.9642,326.4011 176.8302,318.4131 C178.9972,312.3781 180.4182,305.6561 181.3642,299.3621 L188.0152,362.1381 L200.5262,352.8581 L191.4622,267.4451 C198.1552,258.5001 205.9812,247.4541 208.0342,242.0851 C211.3592,233.4041 206.9542,188.9711 204.7392,168.5221 L218.3622,131.0061 L218.3622,129.7861 L218.3642,129.7861 Z" fill="#333152"></path>
		<path d="M143.9211,285.8216 L112.4781,285.8216 C112.4781,285.8216 108.2491,293.3046 108.2491,295.7336 C108.2491,302.9446 127.6021,314.4256 127.6021,314.4256 C127.6021,314.4256 148.0451,302.6026 148.0451,295.7336 C148.0451,292.4566 143.9211,285.8216 143.9211,285.8216" fill="#333152"></path>
		<path d="M137.8605,307.8038 C136.1065,304.6468 133.8435,304.0708 132.8045,306.5048 C131.7685,308.9418 132.3605,313.4758 134.1145,316.6258 C135.8685,319.7848 138.1335,320.3608 139.1675,317.9248 C140.2065,315.4898 139.6175,310.9538 137.8605,307.8038" fill="#C49A7E"></path>
		<path d="M118.4339,307.8038 C116.6769,310.9538 116.0929,315.4898 117.1269,317.9248 C118.1619,320.3608 120.4229,319.7848 122.1849,316.6258 C123.9379,313.4768 124.5259,308.9418 123.4869,306.5048 C122.4529,304.0708 120.1909,304.6468 118.4339,307.8038" fill="#D8B7A0"></path>
	</g>
</svg>

<svg xmlns="http://www.w3.org/2000/svg" viewBox="0 0 256 418.319">
  <path fill="#fff" d="M217.619 99.408c-8.529-26.455-27.921-63.632-30.684-68.864l-2.406-4.574a533.076 533.076 0 0 0-4.806-9.363L170.985 0l-12.517 88.948-.436 3.235a525.09 525.09 0 0 0-29.859-.84c-10.598 0-20.62.31-30.034.85l-.386-3.247-4.393-31.179C93.366 57.715 85.217 0 85.217 0l-8.922 16.607a603.446 603.446 0 0 0-6.412 12.505l-.77 1.432c-2.77 5.237-22.347 42.48-30.93 68.94C13.423 104.265 0 109.382 0 109.382v216.216l127.999 92.72L256 325.6V109.382s-13.465-5.17-38.381-9.975z"/>
  <path fill="#3b3b63" d="m127.9 172.807-55.983 91.708-8.703 94.172 63.825 46.618.861.63 65.273-47.584-10.1-91.074H127.9z"/>
  <path fill="#dbdbdb" d="M126.954 404.967 8.18 318.857V118.062s43.918-16.753 118.936-16.753c75.02 0 118.616 16.753 118.616 16.753v200.797z"/>
  <path fill="#c6c6c6" d="m128.675 101.308-.163.002v303.652h.002l118.777-86.11V118.062s-43.598-16.753-118.616-16.753"/>
  <path fill="#3b3b63" d="M127.591 267.277v138.448l65.256-47.568-10.08-90.88z"/>
  <path fill="#53537a" d="m127.9 172.807-55.983 91.708-8.704 94.172 64.687 47.249z"/>
  <path fill="#bc9375" d="M155.74 331.842c0 15.582-14.315 23.306-27.447 23.306s-27.736-7.724-27.736-23.306"/>
  <path fill="#073251" d="M147.692 323.011c0 18.274-9.677 23.173-19.544 23.173-9.866 0-19.546-4.899-19.546-23.173"/>
  <path fill="#fff" d="M128.147 339.9c-10.543 0-15.669-7.864-15.669-24.03h5.027c0 18.926 7.186 18.926 10.642 18.926 3.455 0 10.642 0 10.642-18.926h5.026c0 16.166-5.127 24.03-15.668 24.03"/>
  <path fill="#c49a7e" d="M211.832 129.623c0-19.714-32.77-81.741-32.77-81.741l-11.085 78.664-9.949 16.607-29.819 1.233-.118.244v-.244l-29.823-1.233-9.946-16.607-11.085-78.664s-32.773 62.027-32.773 81.74l13.845 37.88s-6.987 63.627-3.797 71.957c3.18 8.332 25.27 36.195 25.27 36.195s-.066 23.424 5.982 40.264c4.315 12.026 13.822 16.904 22.925 16.904 13.944 0 19.4-13.006 19.4-13.006s5.585 13.006 19.53 13.006c9.1 0 18.598-4.87 22.923-16.904 6.041-16.833 5.98-40.264 5.98-40.264s22.085-27.863 25.271-36.195c3.188-8.332-3.8-71.957-3.8-71.957z"/>
  <path fill="#d8b7a0" d="m128.147 144.512-.057.118v-.243l-29.824-1.232-9.945-16.608-11.089-78.663s-32.77 62.027-32.77 81.74l13.842 37.88s-6.985 63.626-3.8 71.957c3.187 8.332 25.268 36.195 25.268 36.195s-.057 23.424 5.984 40.264c4.321 12.026 13.83 16.904 22.924 16.904 13.951 0 19.406-13.006 19.406-13.006s.025.046.063.13V144.513z"/>
  <path fill="#3b3b63" d="M198.291 171.23c-2.54-5.404 1.071-18.19 1.071-18.19-20.694-21.566-25.869-66.535-25.869-66.535-3.864 14.17-12.262 55.95-12.262 55.95s-15.445-5.849-33.015-5.877h-.131c-.965.005-1.916.03-2.866.061V312.93l1.312 1.953v-.965h.811v.965l.008-.965h1.602v.965-.965h.82v.965l14.304-21.236 3.11-59.633 17.81 20.654 22.944 6.814s8.584-6.22 8.584-6.198c3.645-5.188 4.854-9.608 5.735-11.9 3.187-8.345-3.968-72.154-3.968-72.154"/>
  <path fill="#53537a" d="m128.308 136.576-.061-.002v.002c-17.577.03-33.024 5.874-33.024 5.874s-8.4-41.777-12.261-55.948c0 0-5.173 44.97-25.87 66.534 0 0 3.612 12.788 1.072 18.191 0 0-7.156 63.812-3.969 72.143.88 2.295 2.098 6.712 5.738 11.901 0-.024 8.59 6.2 8.59 6.2l22.938-6.816 17.808-20.65 3.117 59.632 14.298 21.236v-.965h.818v.965-.965h.804V136.576z"/>
  <path fill="#333152" d="M169.78 211.144h-26.804v.287c0 9.507 8.094 17.208 17.588 17.208 9.497 0 17.59-7.703 17.59-17.208v-.287z"/>
  <path fill="#fff" d="M149.676 211.144v.287c0 5.655 4.482 10.237 10.054 10.237 5.57 0 10.05-4.582 10.05-10.237v-.287z"/>
  <path fill="#333152" d="M162.83 211.144h-4.71c-.046 0-.085.023-.126.032.584.124.908 1.469.782 2.365a2.707 2.707 0 0 1-2.652 2.341c.383 1.789 1.819 3.227 3.727 3.5 2.437.35 4.689-1.347 5.035-3.82.248-1.821-.614-4.418-2.055-4.418M105.076 211.144H78.274v.287c0 9.507 8.095 17.208 17.588 17.208 9.497 0 17.592-7.703 17.592-17.208v-.287z"/>
  <path fill="#fff" d="M84.976 211.144v.287c0 5.655 4.485 10.237 10.049 10.237 5.573 0 10.053-4.582 10.053-10.237v-.287z"/>
  <path fill="#333152" d="M98.13 211.144h-4.715c-.041 0-.085.023-.123.032.583.124.905 1.469.782 2.365-.19 1.368-1.331 2.318-2.655 2.341.388 1.789 1.824 3.227 3.728 3.5 2.436.35 4.693-1.347 5.034-3.82.252-1.821-.61-4.418-2.05-4.418"/>
  <path fill="#c49a7e" d="M167.758 203.03c1.125-1.253 10.68-12.26-2.1-12.26-11.546 0-19.854 9.46-22.056 12.26z"/>
  <path fill="#d8b7a0" d="M112.638 203.03c-2.2-2.8-10.508-12.26-22.059-12.26-12.772 0-3.217 11.007-2.098 12.26z"/>
  <path fill="#53537a" d="M120.991 206.376H72.109v4.667h48.882z"/>
  <path fill="#333152" d="M199.176 144.864c-14.213-20.288-18.672-53.27-19.059-56.284l2.593-18.385C193.264 92 204.337 117.88 205.096 128.68zm-3.63 92.293c-1.94 5.064-15.345 23.157-24.249 34.39l-1.485 1.883.007 2.404c0 .217-.007 22.394-5.577 37.914-4.027 11.217-12.972 12.429-16.626 12.429-9.252 0-13.245-8.611-13.385-8.922l-.529-8.066h-11.247l-.508 8.02c-.16.365-4.055 8.946-13.26 8.946-3.663 0-12.605-1.2-16.635-12.416-5.552-15.465-5.578-37.688-5.578-37.914l.008-2.403-1.485-1.875c-8.899-11.225-22.304-29.318-24.197-34.26-1.513-5.343.985-39.904 4.165-68.865l.175-1.607-2.509-6.858c8.62-9.176 14.67-21.804 18.842-33.825l.406 2.926L95.57 151.9l5.35-2.332c.134-.058 13.851-5.984 27.171-5.984 13.236 0 27.18 5.93 27.31 5.989l5.341 2.312 13.675-22.833.536-3.813c4.13 12.139 10.172 24.993 18.833 34.373l-2.627 7.197.175 1.606c3.178 28.967 5.676 63.528 4.212 68.74zm-75.74 100.245a26.17 26.17 0 0 0 4.831-2.831c1.302.388 2.551.388 3.51.388.954 0 2.19.009 3.483-.38a26.763 26.763 0 0 0 4.837 2.823c-2.245 1.704-5.009 2.662-8.313 2.662-3.323 0-6.1-.951-8.348-2.662zm8.487 14.509c-7.356 0-17.816-3.33-20.418-12.157.266.008.528.03.8.03 1.421 0 2.754-.131 4.042-.317 3.731 5.274 9.543 6.892 15.432 6.892 5.898 0 11.722-1.603 15.46-6.886 1.28.178 2.597.312 4.007.312.277 0 .543-.023.82-.031-2.577 8.827-12.897 12.157-20.143 12.157zM51.206 128.678c.76-10.8 11.825-36.677 22.381-58.485l2.814 19.94c-1.073 7.455-5.977 36.693-19.132 55.123zm167.158 1.108c0-20.822-30.05-78.451-33.483-84.954l-9.607-18.26-13.762 97.795-6.352 10.622c-6.132-2.091-16.568-5.01-27.077-5.01-10.497 0-20.863 2.909-26.969 5.003l-6.355-10.617-4.83-34.28c.006-.057.014-.133.014-.168l-.037-.005-8.93-63.34-9.81 18.26c-3.438 6.503-33.728 64.132-33.728 84.954v1.222l13.87 37.51c-2.218 20.453-6.452 64.879-3.126 73.562 2.072 5.429 10.048 16.639 16.794 25.624L55.89 353.69l12.51 8.962 6.612-62.55c.95 6.083 2.352 12.507 4.433 18.31 2.87 7.997 7.94 14.05 14.431 17.642.386 19.144 17.908 29.468 34.417 29.468 16.372 0 33.75-10.332 34.13-29.483 6.476-3.585 11.541-9.64 14.407-17.627 2.167-6.035 3.588-12.757 4.534-19.051l6.651 62.776 12.511-9.28-9.064-85.413c6.693-8.945 14.52-19.991 16.572-25.36 3.325-8.681-1.08-53.114-3.295-73.563l13.623-37.516v-1.22z"/>
  <path fill="#333152" d="M143.921 285.821h-31.443s-4.229 7.483-4.229 9.912c0 7.211 19.353 18.692 19.353 18.692s20.443-11.823 20.443-18.692c0-3.277-4.124-9.912-4.124-9.912"/>
  <path fill="#c49a7e" d="M137.86 307.803c-1.754-3.157-4.017-3.733-5.056-1.299-1.036 2.437-.444 6.971 1.31 10.121 1.754 3.16 4.02 3.735 5.053 1.3 1.04-2.436.45-6.972-1.307-10.122"/>
  <path fill="#d8b7a0" d="M118.434 307.803c-1.757 3.15-2.341 7.686-1.307 10.121 1.035 2.436 3.296 1.86 5.058-1.299 1.753-3.149 2.34-7.684 1.302-10.12-1.034-2.435-3.296-1.859-5.053 1.298"/>
</svg>
